X:2
T:Ah, Surely!
R:reel
Z:Transcribed by Dave Marshall
M:C|
K:G
|:~A3c BG~G2|BGBd g2fg|eA~A2 BGBd|egdc BG~G2|
~A3c BG~G2|BGBd ~g3a|bgag egfa|gedc BG~G2:|
|:bg~g2 agef|~g3e dega|bg~g2 aged|eaag a2ga|
bg~g2 agef|~g3e dega|bgag egfa|gedc BG~G2:|
